X:1
T:Someone Must Tell the Glad Story
T:Adam Geibel
T:Someone Must Tell the Glad Story
T:Public Domain
T:Public Domain
C:Adam Geibel
Z:Public Domain
%%score ( 1 2 ) ( 3 4 )
L:1/8
M:6/8
K:F
V:1 treble 
V:2 treble 
V:3 bass 
V:4 bass 
V:1
 [FA][F^G][FA] F[F=G][FA] | [FB]3 [FA]2 [FA] | [EA][EG][^D^F] [EG][E^d][Ec] | [FA]3- [FA]2 [CA] | %4
w: 1.~Some- one must tell the glad|ry, The bless-|èd old sto- ry so true,|Of * love|
w: 2.~Some- one must tell of a|ior, To o-|thers a- cross the deep blue,|Now * wait-|
w: 3.~Some- one must tell of the|ing That comes|with each morn- ing so new,|The * good-|
w: 4.~Some- one must tell of sal-|tion, Some- one|must to Je- sus be true,|And * car-|
 [CA][CA][CA] [E=B][EB][EB] | [Ec]3 [Ec]2 [Ad] | [Ge][Ec][EA] [F=B][Fc][Fd] | [Ec]3- [Ec]2 |: %8
w: and of won- der- ful glo-|ry, O say|will that some- one be you?||
w: ing His love and His fa-|vor, O say|will that some- one be you?|O *|
w: ness of Je- sus con- fess-|ing, O say|will that some- one be you?||
w: ry; to each wait- ing na-|tion The sto-|ry that al- ways is new.||
"^Refrain" [Cc] | A>AA [Ac][Gc][Fc] | ced [Ec]2 [Cc] | B>BB [Bc][Ac][Gc] | cfd [Ac]2 | [Ac] | %14
w: ||||||
w: say|will that some- one be you?|* say will that some-|be you? To tell the glad|* ry of grace||
w: ||||||
w: ||||||
 G>GG [G=c][Fc][Ec] | F>F[Fe] FF[Af] | [Ge][ce][Ae] [=Bf][Gf][df] | %17
w: |||
w: of glo- ry, O say *|that some- one be you? O|that * some- one be you?|
w: |||
w: |||
 z [Bbd'][Aac'] [Bc-e-gb][Gceg] :| [Fc] | [Fd]>[Fe][Fd] [Fc][Fc][^FA] | %20
w: |||
w: O say will that|one|be you? To tell the glad|
w: |||
w: |||
 [DB]>[Dc][Dd] [EG][EA][^FA] | [DB][Dc][Dd] [EAe][EAe][EGe] | z2 D [CFf]6 |] %23
w: |||
w: story of grace and of glo-|ry, O say will that some-|one be|
w: |||
w: |||
V:2
 x3 F x2 | x6 | x6 | x6 | x6 | x6 | x6 | x5 |: x | c3- x3 | E3- x3 | c3- x3 | A3- x2 | x | %14
w: sto-||||||||||||||
w: Sav-|||||||||O|one|sto-|and||
w: bless-||||||||||||||
w: va-||||||||||||||
 ^c2- x4 | d2 f2 x2 | x6 | [ce]3 x2 :| x | x6 | x6 | x6 | [Ff]3- x6 |] %23
w: |||||||||
w: will|say will||some-|||||you?|
w: |||||||||
w: |||||||||
V:3
 [F,C][F,=B,][F,C] [F,A,][F,_B,][F,C] | [F,D]3 [F,C]2 [F,C] | [C,C][C,B,][C,A,] [C,B,][C,G,][C,C] | %3
 [F,C]3- [F,C]2 [F,A,] | [F,A,][F,A,][F,A,] [E,^G,][E,G,][E,G,] | A,3 A,2 [F,C] | %6
 [G,C][G,C][G,C] [G,D][G,C][G,=B,] | [C,C]3- [C,C]2 |: z | F,,2 [C,F,A,] [C,F,A,]2 [C,F,A,] | %10
 G,,2 [C,E,B,] [C,E,B,]3 | C,,2 [C,E,B,] [C,E,B,]2 [C,E,B,] | F,, z [C,F,A,] [C,F,A,]2 | z | %14
 A,,2 [G,A,^C] [G,A,C]2 [G,A,C] | [D,,D,]2 [F,A,D] [F,A,D]3 | [G,,G,]2 [G,CE] [G,,G,]2 [G,=B,DF] | %17
 [C,E,G,C]3- [C,E,G,C]2 :| [F,A,] | B,>B,B, [A,C][A,C][D,C] | %20
 [G,B,]>[G,B,][G,B,] [A,^C][A,C][D,=C] | [G,B,][G,B,][G,B,] [C,C][C,C][C,B,] | A,2 B, [F,,F,A,]6 |] %23
V:4
 x6 | x6 | x6 | x6 | x6 | A,3 A,2 x | x6 | x5 |: x | F,,2 x4 | G,,2 x4 | C,,2 x4 | F,, x4 | x | %14
 A,,2 x4 | x6 | x6 | x5 :| x | B,3/2 x9/2 | x6 | x6 | [F,,F,]3- x6 |] %23

